X:47
T:French Pandea Air
M:6/8
L:1/8
Q:1/4=200
O:Belper Militia
A:Derbyshire
K:D
A |d2 c d2 e |f2 d d2 d |e2 e c2 c |dfd A2 A |
d2 c d2 e |f2 d d2 d |ege cBc |d3-d2::
(3a/b/c'/ |d'2 b b2 g |a2 f f2 d |e2 e cBc |dfd A2 c' |
d'2 b b2 g |a2 f f2 d |e2 e cBc |d3-d2: |]
